X:128
T:Paddy's Green Shamrock Shore
M:6/8
L:1/8
K:GMix
Bc| d2 c B2 A|GFD D2 E|F2 D G2 G|(G3 G2) D|\
G2 A B2 c|d e2 f2 g|e c2 f2 e|(d3 d2) D|
G A2 B2 c|d e2 f>fg|e c2 f2 e|(d3d2) B/c/|\
d2 c B2 A|G2 F D2 E|F2 D G2 G|(G3G) Bc|>|
